!!!!SEGMENT: Jos/Jos1406-Ecce_tu_pulchra_es.krn
!!!COM: Josquin des Prez
!!!CDT: ~1450-1521/08/27
!!!OTL@@LAT: Ecce tu pulchra es
!!!AGN: Motet
!!!SCT: NJE 14.6
!!!SCA: New Josquin Edition 14.6
!!!jrpid: Jos1406
!!!voices: 4
**kern	**text	**kern	**text	**kern	**text	**kern	**text
*staff4	*	*staff3	*	*staff2	*	*staff1	*
*Ivox	*	*Ivox	*	*Ivox	*	*Ivox	*
*I"Bassus	*	*I"Tenor	*	*I"Altus	*	*I"Superius	*
*I'B	*	*I'T	*	*I'A	*	*I'S	*
*clefGv2	*	*clefGv2	*	*clefG2	*	*clefG2	*
*k[]	*	*k[]	*	*k[]	*	*k[]	*
*M2/1	*	*M2/1	*	*M2/1	*	*M2/1	*
*met(C|)	*	*met(C|)	*	*met(C|)	*	*met(C|)	*
=1-	=1-	=1-	=1-	=1-	=1-	=1-	=1-
!	!	!	!	!	!	!LO:TX:Z=18:t=5th lower in Petrucci and other sources (this version based on Verona 758)	!
1D	Ec-	0r	.	0d	Ec-	0r	.
2.D	-ce	.	.	.	.	.	.
4E	.	.	.	.	.	.	.
=2	=2	=2	=2	=2	=2	=2	=2
2F	.	0r	.	1d	-ce	0r	.
2.G	tu	.	.	.	.	.	.
.	.	.	.	1B	tu	.	.
4F	.	.	.	.	.	.	.
4E	.	.	.	.	.	.	.
4D	.	.	.	.	.	.	.
=3	=3	=3	=3	=3	=3	=3	=3
2E	.	0r	.	1c	pul-	0r	.
1F	pul-	.	.	.	.	.	.
.	.	.	.	1d	.	.	.
[2G	.	.	.	.	.	.	.
=4	=4	=4	=4	=4	=4	=4	=4
2G]	.	0r	.	2e/	.	0r	.
4F	.	.	.	1f	.	.	.
4E	.	.	.	.	.	.	.
2D	.	.	.	.	.	.	.
[2A	.	.	.	4e/	.	.	.
.	.	.	.	4d/	.	.	.
=5	=5	=5	=5	=5	=5	=5	=5
2A]	.	0r	.	2c/	.	0r	.
4G	.	.	.	1d	.	.	.
4F	.	.	.	.	.	.	.
1E	-chra	.	.	.	.	.	.
.	.	.	.	2c#i/	-chra	.	.
=6	=6	=6	=6	=6	=6	=6	=6
1D	es,	1r	.	1d	es,	2r	.
.	.	.	.	.	.	1ff	A-
2r	.	1a	A-	1r	.	.	.
2A	a-	.	.	.	.	[2ff\	-mi-
=7	=7	=7	=7	=7	=7	=7	=7
2B	-mi-	1g	-mi-	0r	.	2ff\]	.
2c	-ca	.	.	.	.	2ee\	.
2d	me-	1f	-ca	.	.	1dd	-ca
4c	.	.	.	.	.	.	.
4B	.	.	.	.	.	.	.
=8	=8	=8	=8	=8	=8	=8	=8
2A	.	2.e\	me-	0r	.	2.cc\	me-
4G	.	.	.	.	.	.	.
4F	.	4f\	.	.	.	4dd\	.
2E	.	2g\	.	.	.	2ee\	.
2D	.	2a\	.	.	.	[2ff\	.
=9	=9	=9	=9	=9	=9	=9	=9
2d	.	2f\	.	0r	.	4ff\]	.
.	.	.	.	.	.	4ee\	.
2G	.	2g\	.	.	.	1dd	.
1A	-a,	1e	.	.	.	.	.
.	.	.	.	.	.	2cc#i\	.
=10	=10	=10	=10	=10	=10	=10	=10
1r	.	1d	-a...	1a	ec-	1dd	-a...
1d	ec-	1r	.	1a	-ce	1r	.
=11	=11	=11	=11	=11	=11	=11	=11
1d	-ce	0r	.	2b\	tu	0r	.
.	.	.	.	2.dd\	pul-	.	.
1B	tu	.	.	.	.	.	.
.	.	.	.	4cc\	.	.	.
.	.	.	.	4b\	.	.	.
.	.	.	.	4a/	.	.	.
=12	=12	=12	=12	=12	=12	=12	=12
1c	pul-	0r	.	2g/	.	0r	.
.	.	.	.	1a	.	.	.
1d	.	.	.	.	.	.	.
.	.	.	.	2b\	.	.	.
=13	=13	=13	=13	=13	=13	=13	=13
2e	.	0r	.	2g/	.	0r	.
1f	.	.	.	1a	.	.	.
4e	.	.	.	4g/	.	.	.
4d	.	.	.	4f/	.	.	.
=14	=14	=14	=14	=14	=14	=14	=14
2c	.	0r	.	2e/	.	0r	.
1d	.	.	.	2d/	.	.	.
.	.	.	.	1e	-chra	.	.
2c#i	-chra	.	.	.	.	.	.
=15	=15	=15	=15	=15	=15	=15	=15
1d	es...	1r	.	1d	es,	2r	.
.	.	.	.	.	.	1ff	o-
1r	.	1a	o-	2r	.	.	.
.	.	.	.	[2f/	o-	4ee\	-cu-
.	.	.	.	.	.	4dd\	.
=16	=16	=16	=16	=16	=16	=16	=16
0r	.	1a	-cu-	2f/]	.	2cc\	-li
.	.	.	.	4e/	.	1ff	tu-
.	.	.	.	4d/	.	.	.
.	.	1g	-li	2c/	-cu-	.	.
.	.	.	.	2c/	-li	2ee\	.
=17	=17	=17	=17	=17	=17	=17	=17
0r	.	1f	tu-	1d	tu-	1dd	-i
.	.	2.e\	-i	1A	-i.	2.cc\	co-
.	.	4f\	.	.	.	4dd\	.
=18	=18	=18	=18	=18	=18	=18	=18
0r	.	2g\	.	0r	.	2ee\	-lum-
.	.	2a\	co-	.	.	2.ff\	-ba-
.	.	2f\	-lum-	.	.	.	.
.	.	.	.	.	.	4ee\	.
.	.	2g\	.	.	.	[2dd\	.
=19	=19	=19	=19	=19	=19	=19	=19
0r	.	1e	-ba-	1r	.	2dd\]	.
.	.	.	.	.	.	2cc#i\	.
.	.	1d	-rum.	[1a	Ec-	1dd	-rum.
=20	=20	=20	=20	=20	=20	=20	=20
1d	Ec-	1r	.	1a]	.	0dd	Ec-
1d	-ce	1f	Ec-	1a	-ce	.	.
=21	=21	=21	=21	=21	=21	=21	=21
1G	tu	1g	-ce	1b-i	tu	1dd	-ce
[1d	pul-	1a	tu-	2a/	pul-	1dd	tu
.	.	.	.	2f/	.	.	.
=22	=22	=22	=22	=22	=22	=22	=22
1d]	.	1f	pul-	1a	.	1ff	pul-
1d	-cher	1f	-cher	1b	-cher	1ff	-cher
=23	=23	=23	=23	=23	=23	=23	=23
0c	es,	0g	es,	0cc	es,	0ee	es,
=24	=24	=24	=24	=24	=24	=24	=24
1c	di-	1g	di-	1cc	di-	1ee	di-
1G	-lec-	1g	-lec-	1b	-lec-	1dd	-lec-
=25	=25	=25	=25	=25	=25	=25	=25
1A	-te	1e	-te	1a	-te	1cc	-te
1E	mi,	2.e\	mi-	1g	.	1b	mi,
.	.	4d\	.	.	.	.	.
=26	=26	=26	=26	=26	=26	=26	=26
2F	et	2c\	.	2f/	mi-	2a/	et
2G	de-	2B\	et	2d/	.	2dd\	de-
2A	.	2A/	de-	2r	.	2cc\	.
[2G	-co-	[2d\	-co-	[2g/	et	[2b\	-co-
=27	=27	=27	=27	=27	=27	=27	=27
2G]	.	2d\]	.	2g/]	.	2b\]	.
2A	.	2c\	.	2f/	de-	1a	.
1E	.	1B	.	2.e/	-co-	.	.
.	.	.	.	.	.	2g#i/	.
.	.	.	.	4c/	.	.	.
=28	=28	=28	=28	=28	=28	=28	=28
1F	-rus	0A	-rus	2.c/	.	[0a	-rus
.	.	.	.	4d/	.	.	.
2r	.	.	.	2e/	.	.	.
[2D	lec-	.	.	[2f/	.	.	.
=29	=29	=29	=29	=29	=29	=29	=29
2D]	.	1r	.	2f/]	.	0a]	.
2E	tu-	.	.	4e/	.	.	.
.	.	.	.	4d/	.	.	.
2F	-lus	1A	lec-	1c	-rus	.	.
2F	nos-	.	.	.	.	.	.
=30	=30	=30	=30	=30	=30	=30	=30
1G	-ter	2B\	-tu-	1r	.	0r	.
.	.	2B\	-lus	.	.	.	.
2E	flo-	1c	nos-	1e	lec-	.	.
2E	-ri-	.	.	.	.	.	.
=31	=31	=31	=31	=31	=31	=31	=31
1D	-dus.	1d	-ter	2f/	-tu-	1a	lec-
.	.	.	.	2f/	-lus	.	.
1r	.	2B\	flo-	1g	nos-	2b\	-tu-
.	.	2B\	-ri-	.	.	2b\	-lus
=32	=32	=32	=32	=32	=32	=32	=32
0r	.	1A	-dus.	1a	-ter	1cc	nos-
.	.	1r	.	1f	flo-	1dd	-ter
=33	=33	=33	=33	=33	=33	=33	=33
0r	.	0r	.	1g	-ri-	2b\	flo-
.	.	.	.	.	.	2b\	-ri-
.	.	.	.	1a	-dus.	1a	-dus.
=34	=34	=34	=34	=34	=34	=34	=34
1A	Tec-	1r	.	0r	.	0r	.
2A	-ta	1e	Tec-	.	.	.	.
2A	do-	.	.	.	.	.	.
=35	=35	=35	=35	=35	=35	=35	=35
1c	-mo-	2e\	-ta	0r	.	0r	.
.	.	2e\	do-	.	.	.	.
1B-i	-rum	1g	-mo-	.	.	.	.
=36	=36	=36	=36	=36	=36	=36	=36
1A	nos-	1f	-rum	0r	.	0r	.
1G	-tra	1e	nos-	.	.	.	.
=37	=37	=37	=37	=37	=37	=37	=37
2G	-rum	2.d\	-tra-	0r	.	0r	.
1B-i	ce-	.	.	.	.	.	.
.	.	4e\	.	.	.	.	.
.	.	2f\	-rum	.	.	.	.
4A	.	[2g\	ce-	.	.	.	.
4G	.	.	.	.	.	.	.
=38	=38	=38	=38	=38	=38	=38	=38
2B-i	.	2g\]	.	0r	.	0r	.
2A	.	1f	.	.	.	.	.
1G	-dri	.	.	.	.	.	.
.	.	2e\	-dri-	.	.	.	.
=39	=39	=39	=39	=39	=39	=39	=39
1F	-na,	1f	-na,	1r	.	1r	.
2r	.	1r	.	1a	La-	1cc	La-
[2F	la-	.	.	.	.	.	.
=40	=40	=40	=40	=40	=40	=40	=40
2F]	.	0r	.	1a	-que-	1cc	-que-
2A	-que-	.	.	.	.	.	.
2G	-a-	.	.	2b-i\	-a-	2dd\	-a-
2G	-ri-	.	.	2b-i\	-ri-	2dd\	-ri-
=41	=41	=41	=41	=41	=41	=41	=41
2A	-a	0r	.	1a	-a-	2cc\	-a
2F	nos-	.	.	.	.	1ff	nos-
1c	-tra...	.	.	1g	nos-	.	.
.	.	.	.	.	.	2ee\	-tra
=42	=42	=42	=42	=42	=42	=42	=42
0r	.	2r	.	1f	-tra	2dd\	ci-
.	.	1d	ci-	.	.	1ff	-pres-
.	.	.	.	1a	ci-	.	.
.	.	2A/	-pres-	.	.	[2ee\	-si-
=43	=43	=43	=43	=43	=43	=43	=43
0r	.	2c\	-si-	2g/	-pres-	2ee\]	.
.	.	2d\	.	2f/	.	1dd	.
.	.	1A	.	1e	.	.	.
.	.	.	.	.	.	2cc#i\	.
=44	=44	=44	=44	=44	=44	=44	=44
1r	.	1a	-na.	4d/	-si-	1dd	-na.
.	.	.	.	4e/	.	.	.
.	.	.	.	4f/	.	.	.
.	.	.	.	4g/	.	.	.
2d	E-	1r	.	2a/	.	1r	.
2d	-go	.	.	2b\	.	.	.
=45	=45	=45	=45	=45	=45	=45	=45
1f	flos	0r	.	2a/	.	0r	.
.	.	.	.	1dd	.	.	.
1e	cam-	.	.	.	.	.	.
.	.	.	.	2cc#i\	.	.	.
=46	=46	=46	=46	=46	=46	=46	=46
2d	.	2d\	E-	1dd	-na.	0r	.
1f	.	2d\	-go	.	.	.	.
.	.	1f	flos	1r	.	.	.
4e	.	.	.	.	.	.	.
4d	.	.	.	.	.	.	.
=47	=47	=47	=47	=47	=47	=47	=47
2c	.	1e	cam-	0r	.	1r	.
4d	.	.	.	.	.	.	.
4c	.	.	.	.	.	.	.
2d	pi,	2d\	.	.	.	2dd\	E-
[2D	cam-	[2f\	.	.	.	2dd\	-go
=48	=48	=48	=48	=48	=48	=48	=48
4D]	.	2f\]	.	0r	.	1ff	flos
4E	.	.	.	.	.	.	.
4F	.	4e\	.	.	.	.	.
4G	.	4d\	.	.	.	.	.
2A	.	1c#i	.	.	.	1ee	cam-
2E	.	.	.	.	.	.	.
=49	=49	=49	=49	=49	=49	=49	=49
2F	.	1d	-pi	2d/	E-	2dd\	.
2.D	.	.	.	2d/	-go	1ff	.
.	.	1r	.	1f	flos	.	.
4E	.	.	.	.	.	.	.
4F	.	.	.	.	.	4ee\	.
4G	.	.	.	.	.	4dd\	.
=50	=50	=50	=50	=50	=50	=50	=50
1A	-pi	0r	.	1e	cam-	2cc\	.
.	.	.	.	.	.	4dd\	.
.	.	.	.	.	.	4cc\	.
1r	.	.	.	2d/	.	2dd\	.
.	.	.	.	[2f/	.	[2a/	.
=51	=51	=51	=51	=51	=51	=51	=51
1r	.	0r	.	2f/]	.	2a/]	.
.	.	.	.	4e/	.	4g/	.
.	.	.	.	4d/	.	4f/	.
1A	et	.	.	2c/	.	1e	.
.	.	.	.	4d/	.	.	.
.	.	.	.	4c/	.	.	.
=52	=52	=52	=52	=52	=52	=52	=52
2F	li-	1r	.	1d	-pi	1d	-pi
2G	-li-	.	.	.	.	.	.
2D	-um	1a	et	1r	.	1r	.
2F	con-	.	.	.	.	.	.
=53	=53	=53	=53	=53	=53	=53	=53
2E	-val-	2g\	li-	0r	.	1r	.
2E	-li-	2g\	-li-	.	.	.	.
1D	-um,	2f\	-um	.	.	1a	et
.	.	2f\	con-	.	.	.	.
=54	=54	=54	=54	=54	=54	=54	=54
1r	.	2e\	-va-	0r	.	2g/	li-
.	.	2e\	-li-	.	.	2g/	-li-
2r	.	1d	-um.	.	.	2f/	-um
[2d	et	.	.	.	.	2f/	con-
=55	=55	=55	=55	=55	=55	=55	=55
2d]	.	1A	.	1r	.	2e/	-val
2c	li-	.	.	.	.	2e/	-li-
2d	-li-	1r	.	1a	et	2d/	-um.
2A	-um	.	.	.	.	[2ff\	Si-
=56	=56	=56	=56	=56	=56	=56	=56
1c	con-	0r	.	2g/	li-	2ff\]	.
.	.	.	.	2g/	-li-	1ee	-cut
1d	-val-	.	.	2f/	um	.	.
.	.	.	.	2f/	con-	[2dd\	li-
=57	=57	=57	=57	=57	=57	=57	=57
1A	-li-	0a	Si-	2e/	-val-	2dd\]	.
.	.	.	.	2e/	-li-	2cc#i\	-li-
1D	-um.	.	.	1d	um.	1dd	um
=58	=58	=58	=58	=58	=58	=58	=58
1r	.	1a	-cut	2r	.	0r	.
.	.	.	.	2f/	Si-	.	.
1D	Si-	[1a	li-	2f/	-cut	.	.
.	.	.	.	4e/	.	.	.
.	.	.	.	4d/	.	.	.
=59	=59	=59	=59	=59	=59	=59	=59
1F	-cut	1a]	.	2c/	.	0r	.
.	.	.	.	1d	li-	.	.
2E	li-	1g	-li-	.	.	.	.
2E	-li-	.	.	2c#i/	-li-	.	.
=60	=60	=60	=60	=60	=60	=60	=60
1D	-um	0f	-um	1d	.-um	1a	in-
1r	.	.	.	1r	.	1cc	-ter
=61	=61	=61	=61	=61	=61	=61	=61
1r	.	1d	in-	2dd\	in-	1b	spi-
.	.	.	.	2dd\	-ter	.	.
1A	in-	1f	-ter	2cc\	spi-	1a	-nas,
.	.	.	.	4b\	.	.	.
.	.	.	.	4a/	.	.	.
=62	=62	=62	=62	=62	=62	=62	=62
1c	-ter	1e	spi-	2g/	.	1r	.
.	.	.	.	1a	.	.	.
1B	spi-	1d	-nas,	.	.	2dd\	sic
.	-	.	.	2g#i/	.	2dd\	a-
=63	=63	=63	=63	=63	=63	=63	=63
2A	.	0r	.	1a	.	2cc\	-mi-
1c	.	.	.	.	.	4b\	.
.	.	.	.	.	.	4a/	.
.	.	.	.	1e	-nas,	2g/	-ca
4B	.	.	.	.	.	[2a/	me-
4A	.	.	.	.	.	.	.
=64	=64	=64	=64	=64	=64	=64	=64
1B	.	1d	sic	0r	.	2a/]	.
.	.	.	.	.	.	2g#i/	.
1A	-nas,	2e\	a-	.	.	2a/	.
.	.	[2f\	-mi-	.	.	2cc\	.
=65	=65	=65	=65	=65	=65	=65	=65
1r	.	2f\]	.	0r	.	2dd\	.
.	.	2g\	.	.	.	1ee	.
1A	sic	[1a	.	.	.	.	.
.	.	.	.	.	.	[2ff\	.
=66	=66	=66	=66	=66	=66	=66	=66
0B-i	a-	2a\]	.	0r	.	4ff\]	.
.	.	.	.	.	.	4ee\	.
.	.	4g\	.	.	.	4dd\	.
.	.	4f\	.	.	.	4cc	.
.	.	1g	-ca	.	.	1dd	.
=67	=67	=67	=67	=67	=67	=67	=67
1A	-mi-	0a	me-	1c	in-	1cc	-a
1F	-ca	.	.	2d/	-ter	1r	.
.	.	.	.	[2f/	fi-	.	.
=68	=68	=68	=68	=68	=68	=68	=68
1G	me-	0b-i	-a	2f/]	.	0r	.
.	.	.	.	4e/	.	.	.
.	.	.	.	4d/	.	.	.
1G	-a	.	.	1e	-li-	.	.
=69	=69	=69	=69	=69	=69	=69	=69
1F	in-	1a	in-	0f	-as.	1cc	in-
1F	-ter	1f	-ter	.	.	2dd\	-ter
.	.	.	.	.	.	[2ff\	fi-
=70	=70	=70	=70	=70	=70	=70	=70
1c	fi-	1g	fi-	0r	.	2ff\]	.
.	.	.	.	.	.	4ee\	.
.	.	.	.	.	.	4dd\	.
1c	-li-	1g	-li-	.	.	1ee	-li-
=71	=71	=71	=71	=71	=71	=71	=71
0F	-as.	1f	-as.	1cc	In-	0ff	-as.
.	.	1r	.	1cc	-tro-	.	.
=72	=72	=72	=72	=72	=72	=72	=72
0r	.	1f	In-	1a	-dux-	0r	.
.	.	1f	-tro-	1cc	-it	.	.
=73	=73	=73	=73	=73	=73	=73	=73
0r	.	1d	-dux-	2.b\	me	0r	.
.	.	.	.	4g/	.	.	.
.	.	1f	-it	2a/	.	.	.
.	.	.	.	[2dd\	.	.	.
=74	=74	=74	=74	=74	=74	=74	=74
0r	.	2e\	me-	2dd\]	.	0r	.
.	.	2c\	.	1cc	.	.	.
.	.	1d	.	.	.	.	.
.	.	.	.	2b\	.	.	.
=75	=75	=75	=75	=75	=75	=75	=75
2r	.	1c	rex	0cc	rex.	0r	.
1F	in-	.	.	.	.	.	.
.	.	1c	in-	.	.	.	.
[2A	cu-	.	.	.	.	.	.
=76	=76	=76	=76	=76	=76	=76	=76
2A]	.	1e	cu-	0r	.	0r	.
2c	-bi-	.	.	.	.	.	.
2B	-cu-	2g\	-bi-	.	.	.	.
[2c	-lum	2g\	-cu-	.	.	.	.
=77	=77	=77	=77	=77	=77	=77	=77
2c]	.	2e\	-lum	0r	.	0r	.
4B	.	1g	su-	.	.	.	.
4A	.	.	.	.	.	.	.
2G	.	.	.	.	.	.	.
[2c	su-	4f\	.	.	.	.	.
.	.	4e\	.	.	.	.	.
=78	=78	=78	=78	=78	=78	=78	=78
2c]	.	1d	.	1r	.	0r	.
2B	.	.	.	.	.	.	.
1c	-um.	1c	-um.	1g	Or-	.	.
=79	=79	=79	=79	=79	=79	=79	=79
0r	.	0r	.	1g	-di-	1ee	Or-
.	.	.	.	1a	-na-	1ee	-di-
=80	=80	=80	=80	=80	=80	=80	=80
0r	.	0r	.	1a	-vit	1ff	-na-
.	.	.	.	1b	in-	1dd	-vit
=81	=81	=81	=81	=81	=81	=81	=81
0r	.	0r	.	2g/	me-	1ee	in-
.	.	.	.	2.a/	-ca-	.	.
.	.	.	.	.	.	1cc	me
.	.	.	.	4g/	.	.	.
.	.	.	.	4f/	.	.	.
.	.	.	.	4e/	.	.	.
=82	=82	=82	=82	=82	=82	=82	=82
0r	.	0r	.	2d/	.	1dd	ca-
.	.	.	.	2f/	-ri-	.	.
.	.	.	.	2e/	-ta-	2cc\	-ri-
.	.	.	.	[2a/	.	2a/	.
=83	=83	=83	=83	=83	=83	=83	=83
0r	.	0r	.	2a/]	.	1b	-ta-
.	.	.	.	2g#i/	.	.	.
.	.	.	.	1a	-tem.	1a	-tem.
=84	=84	=84	=84	=84	=84	=84	=84
2r	.	2f\	Ful-	0r	.	0r	.
1d	Ful-	2f\	-ci-	.	.	.	.
.	.	1e	-te	.	.	.	.
2c	-ci-	.	.	.	.	.	.
=85	=85	=85	=85	=85	=85	=85	=85
2d	-ter	1d	me	0r	.	0r	.
1B-	me-	.	.	.	.	.	.
.	.	2d\	flo-	.	.	.	.
4A	.	[2f\	.	.	.	.	.
4G	.	.	.	.	.	.	.
=86	=86	=86	=86	=86	=86	=86	=86
1B-i	.	2f\]	.	0r	.	0r	.
.	.	4e\	.	.	.	.	.
.	.	4d\	.	.	.	.	.
2F	flo-	2f\	.	.	.	.	.
[2A	.	[2e\	.	.	.	.	.
=87	=87	=87	=87	=87	=87	=87	=87
2A]	.	2e\]	.	0r	.	0r	.
4G	.	1d	.	.	.	.	.
4F	.	.	.	.	.	.	.
1E	-ri-	.	.	.	.	.	.
.	.	2c#i\	.	.	.	.	.
=88	=88	=88	=88	=88	=88	=88	=88
1D	-bus,	1d	-bus,	1.a	Sti-	1.ff	Sti-
2d	sti-	1r	.	.	.	.	.
2d	-pa-	.	.	2a/	-pa-	2ff\	-pa-
=89	=89	=89	=89	=89	=89	=89	=89
2c	-ter	0r	.	1cc	-te	1ee	-te
2A	me-	.	.	.	.	.	.
2B	ma-	.	.	2b\	me	2dd\	me
2A	-lis	.	.	[2cc\	ma-	[2ee\	ma-
=90	=90	=90	=90	=90	=90	=90	=90
2r	.	1e	qui-	2cc\]	.	2ee\]	.
2A	qui-	.	.	4b\	.	4dd\	.
.	.	.	.	4a/	.	4cc\	.
1E	-a	1e	-a	1g	.	1b	.
=91	=91	=91	=91	=91	=91	=91	=91
1F	a-	2c\	a-	1a	-lis,	1a	-lis,
.	.	1f	-mo-	.	.	.	.
1D	.	.	.	1r	.	1dd	qui-
.	.	4e\	.	.	.	.	.
.	.	4d\	.	.	.	.	.
=92	=92	=92	=92	=92	=92	=92	=92
1A	-mo-	1e	.	1a	qui-	1cc	-a
[1D	-re,	2d\	.	[1a	-a	1dd	a-
.	.	[2f\	.	.	.	.	.
=93	=93	=93	=93	=93	=93	=93	=93
2D]	.	2f\]	.	2a/]	.	0ff	-mo-
2E	a-	2e\	.	2g/	a-	.	.
2F	-mo-	1d	-re	2a/	-mo-	.	.
2G	-re	.	.	2b\	-re	.	.
=94	=94	=94	=94	=94	=94	=94	=94
1A	lan-	1c	lan-	2cc\	lan-	1ee	-re
.	.	.	.	1a	.	.	.
1B-i	.	1d	.	.	.	1dd	lan-
.	.	.	.	2g/	.	.	.
=95	=95	=95	=95	=95	=95	=95	=95
[0A;	-gue-	[0e;	-gue-	[0a;	-gue-	[0cc#i;	-gue-
=96	=96	=96	=96	=96	=96	=96	=96
0A]	.	0e]	.	0a]	.	0cc#]	.
=97	=97	=97	=97	=97	=97	=97	=97
0Dl	-o.	0dl	-o.	0al	-o.	0ddl	-o.
==	==	==	==	==	==	==	==
*-	*-	*-	*-	*-	*-	*-	*-
!!!RDF**kern: l=long note in original notation
!!!RDF**kern: i=editorial accidental
!!!ENC: Jesse Rodin 2011/05/17
!!!END: 2011/05/17/
!!!EED: Jesse Rodin
!!!EEV: 2011/08/18/
!!attribution-level@Jos: 2 (provisionally attributable [parentheses checkmark])
!!!ONB: Translated from MusicXML and edited on 2011/08/18/ by Craig Sapp
!!muse2ps: C^@{COM}^i2I150v90,90,90,120c80z18l2700t130
